X: 43206
T: Witch Of The Waves, The
R: reel
M: 4/4
K: Gmajor
|GABc dedB|cdef gage|dedB cBAG|FGAG FDEF|
GABc dedB|cdef gfga|bagf gfed|^cABc d2 fg|
|:afdf gfed|^cABc d2 fg|afdf gfed|1 ^cABc d2 fg:|2 ^cABc d4||

